X: 15712
T: Golden Legs, The
R: reel
M: 4/4
K: Dmajor
|:D2 FD ~E2 GE|FDEF GA B/c/d|fdAf ecAe|dBGd AECE|
D2 FD ~E2 GE|FDEF GA B/c/d|efge cAGE|1 EDCE DGFE:|2 EDCE Da^ga||
|:fd ~d2 cdef|~g2 fa gefd|cA ~A2 BG ~G2|
[1 AF ~F2 GEEg|fd ~d2 cded|~g2 fa gefd|cA ~A2 efge|cAGE Da^ga:|
[2 AF ~F2 GEEA|D2 FD ~E2 GE|FDEF GA B/c/d|efge cAGE|EDCE DGFE||

